apps/symbolic/multimedia-audio-player-symbolic.svg

<?xml version="1.0" encoding="UTF-8" standalone="no"?>
<svg
   xmlns:dc="http://purl.org/dc/elements/1.1/"
   xmlns:cc="http://creativecommons.org/ns#"
   xmlns:rdf="http://www.w3.org/1999/02/22-rdf-syntax-ns#"
   xmlns:svg="http://www.w3.org/2000/svg"
   xmlns="http://www.w3.org/2000/svg"
   id="svg6"
   version="1.1"
   width="16"
   height="16">
  <metadata
     id="metadata12">
    <rdf:RDF>
      <cc:Work
         rdf:about="">
        <dc:format>image/svg+xml</dc:format>
        <dc:type
           rdf:resource="http://purl.org/dc/dcmitype/StillImage" />
        <dc:title></dc:title>
      </cc:Work>
    </rdf:RDF>
  </metadata>
  <defs
     id="defs10" />
  <path
     id="path2"
     style="color:#000000;font-variation-settings:normal;opacity:1;vector-effect:none;fill:#666666;fill-opacity:1;stroke-width:1;stroke-linecap:butt;stroke-linejoin:miter;stroke-miterlimit:4;stroke-dasharray:none;stroke-dashoffset:0;stroke-opacity:1;marker:none"
     d="M 2.5,1 C 1.669,1 1,1.669 1,2.5 v 11 C 1,14.331 1.669,15 2.5,15 h 11 C 14.331,15 15,14.331 15,13.5 V 2.5 C 15,1.669 14.331,1 13.5,1 Z m 8.222656,3.0058594 C 10.886229,4.0366285 11,4.182875 11,4.390625 v 6.492187 h -0.002 c 0.0024,0.455053 -0.462824,0.888883 -1.1289064,1.052735 C 9.0655489,12.131928 8.2494601,11.872144 8.046875,11.355469 7.8425553,10.839472 8.3278988,10.261432 9.1308594,10.064453 9.4183548,9.9945301 9.7207963,9.9809373 10,10.025391 V 6.0117188 L 7,6.8339844 v 5.0156246 h -0.00195 C 7.0240037,12.315145 6.5537902,12.767461 5.8691406,12.935547 5.0655489,13.131928 4.2494601,12.872144 4.046875,12.355469 3.8425553,11.839472 4.3278988,11.261432 5.1308594,11.064453 5.4183548,10.99453 5.7207963,10.980937 6,11.025391 V 5.7636719 c 0,-0.277 0.2027663,-0.555689 0.4550781,-0.625 L 10.544922,4.015625 c 0.06308,-0.01733 0.123214,-0.020022 0.177734,-0.00977 z" />
</svg>

<?xml version="1.0" encoding="UTF-8" standalone="no"?>
<svg
   xmlns:dc="http://purl.org/dc/elements/1.1/"
   xmlns:cc="http://creativecommons.org/ns#"
   xmlns:rdf="http://www.w3.org/1999/02/22-rdf-syntax-ns#"
   xmlns:svg="http://www.w3.org/2000/svg"
   xmlns="http://www.w3.org/2000/svg"
   id="svg6"
   version="1.1"
   width="16"
   height="16">
  <metadata
     id="metadata12">
    <rdf:RDF>
      <cc:Work
         rdf:about="">
        <dc:format>image/svg+xml</dc:format>
        <dc:type
           rdf:resource="http://purl.org/dc/dcmitype/StillImage" />
        <dc:title />
      </cc:Work>
    </rdf:RDF>
  </metadata>
  <defs
     id="defs10" />
  <path
     id="path2"
     style="color:#000000;font-variation-settings:normal;opacity:1;vector-effect:none;fill:#666666;fill-opacity:1;stroke-width:1;stroke-linecap:butt;stroke-linejoin:miter;stroke-miterlimit:4;stroke-dasharray:none;stroke-dashoffset:0;stroke-opacity:1;marker:none"
     d="M 3 1 C 1.892 1 1 1.892 1 3 L 1 13 C 1 14.108 1.892 15 3 15 L 13 15 C 14.108 15 15 14.108 15 13 L 15 3 C 15 1.892 14.108 1 13 1 L 3 1 z M 10.722656 4.0058594 C 10.886229 4.0366285 11 4.182875 11 4.390625 L 11 10.882812 L 10.998047 10.882812 C 11.000447 11.337865 10.535223 11.771695 9.8691406 11.935547 C 9.0655959 12.131928 8.2494601 11.872144 8.046875 11.355469 C 7.8425553 10.839472 8.3278988 10.261432 9.1308594 10.064453 C 9.4183548 9.9945302 9.7207963 9.9809369 10 10.025391 L 10 6.0117188 L 7 6.8339844 L 7 11.849609 L 6.9980469 11.849609 C 7.0240006 12.315145 6.5537902 12.767461 5.8691406 12.935547 C 5.0655489 13.131928 4.2494601 12.872144 4.046875 12.355469 C 3.8425553 11.839472 4.3278988 11.261432 5.1308594 11.064453 C 5.4183548 10.99453 5.7207963 10.980937 6 11.025391 L 6 5.7636719 C 6 5.4866719 6.2027663 5.2079829 6.4550781 5.1386719 L 10.544922 4.015625 C 10.608002 3.998295 10.668136 3.9956074 10.722656 4.0058594 z " />
</svg>
